X: 1
T: Toss The Feathers
Z: slainte
S: https://thesession.org/tunes/113#setting12699
R: reel
M: 4/4
L: 1/8
K: Edor
EBBB dBBB|EBBA FEFA|BE E2 BABc|1 d2 fe dBAF:|2 d2 fe dBAd||
Beed e2 de|fede fe e2|febe febe|fede fe e2|
Beed e2 de|fede fgaf|b2 bg a2 af|egfe dBAF||

